casedrop/img/footer/icons/heart-rate.svg

<svg width="21" height="17" viewBox="0 0 21 17" fill="none" xmlns="http://www.w3.org/2000/svg">
<path d="M19.875 7.45841H15.7708C15.6982 7.44855 15.6247 7.44855 15.5521 7.45841H15.375C15.3206 7.48948 15.2684 7.52428 15.2187 7.56258C15.1607 7.60088 15.1051 7.64262 15.0521 7.68758C15.0173 7.73017 14.986 7.77545 14.9583 7.823C14.9106 7.88862 14.8688 7.95833 14.8333 8.03133L13.1667 12.6251L8.82291 0.854245C8.74992 0.653151 8.61679 0.479405 8.4416 0.356621C8.26642 0.233837 8.05767 0.167969 7.84374 0.167969C7.62981 0.167969 7.42107 0.233837 7.24588 0.356621C7.0707 0.479405 6.93757 0.653151 6.86458 0.854245L4.45833 7.45841H1.12499C0.848728 7.45841 0.583776 7.56816 0.388425 7.76351C0.193075 7.95886 0.0833282 8.22381 0.0833282 8.50008C0.0833282 8.77635 0.193075 9.0413 0.388425 9.23665C0.583776 9.432 0.848728 9.54174 1.12499 9.54174H5.20833H5.44791H5.60416C5.66337 9.51324 5.71926 9.47831 5.77083 9.43758C5.82883 9.39928 5.88449 9.35754 5.93749 9.31258L6.03124 9.17716C6.08089 9.11283 6.12285 9.04291 6.15624 8.96883L7.84374 4.25008L12.1771 16.1459C12.2499 16.3472 12.3829 16.5212 12.5581 16.6443C12.7333 16.7673 12.9422 16.8333 13.1562 16.8334C13.3703 16.8333 13.5792 16.7673 13.7544 16.6443C13.9296 16.5212 14.0626 16.3472 14.1354 16.1459L16.5312 9.54174H19.875C20.1513 9.54174 20.4162 9.432 20.6116 9.23665C20.8069 9.0413 20.9167 8.77635 20.9167 8.50008C20.9167 8.22381 20.8069 7.95886 20.6116 7.76351C20.4162 7.56816 20.1513 7.45841 19.875 7.45841Z" fill="#31E26A"/>
</svg>

<svg width="21" height="17" fill="none" xmlns="http://www.w3.org/2000/svg"><path d="M19.875 7.458h-4.104a.812.812 0 00-.219 0h-.177a1.365 1.365 0 00-.156.105c-.058.038-.114.08-.167.125a1.046 1.046 0 00-.094.135c-.047.066-.09.135-.125.208l-1.666 4.594L8.823.855a1.042 1.042 0 00-1.958 0L4.458 7.457H1.125a1.042 1.042 0 000 2.084h4.479a.896.896 0 00.167-.104c.058-.039.113-.08.166-.125l.094-.136a.999.999 0 00.125-.208L7.844 4.25l4.333 11.896a1.042 1.042 0 001.958 0l2.396-6.604h3.344a1.042 1.042 0 000-2.084z" fill="#31E26A"/></svg>
